X:437
T:Greengrocers March
M:4/4
L:1/8
Q:1/8=140
K:G
de d2 Bc B2|G>G AG FG c2|cd c>B AB A2|d2 fe dc B2|de d2 Bc B2|
G>G AG FG e2|ce e>c Bd d2|dg fe cA GD||M:1/4
GB|
M:4/4
d2 d3 e de|d2 B3 B cB|A2 A3 c BA|Gd/2e/2-e/2d/2B GD GB|d2
d3 e
de|d2 B3 B cB|A2 A3 c BA|Gd/2e/2-e/2d/2B  G2 G||
